dist/assets/img/questions/7/backdrop.svg

<svg width="664" height="376" viewBox="0 0 664 376" fill="none" xmlns="http://www.w3.org/2000/svg">
<g filter="url(#filter0_di_1495_78605)">
<path fill-rule="evenodd" clip-rule="evenodd" d="M540.33 289.375C621.187 257.21 654.903 157.001 586.187 86.7088C516.779 15.708 248.266 11.0166 163.257 62.3206C88.8327 107.237 66.4303 191.675 94.8978 252.833C97.5489 258.528 98.676 265.033 96.1837 270.799C85.5682 295.361 61.4321 310.349 40.48 323.361C40.256 323.5 40.3479 323.843 40.6114 323.855C69.3863 325.129 95.1751 313.15 113.006 301.199C121.647 295.408 132.849 294.637 142.611 298.227C168.961 307.919 201.435 307.347 234.406 306.767C257.067 306.368 279.962 305.965 301.267 308.886C380.187 319.71 453.687 323.842 540.33 289.375Z" fill="white"/>
</g>
<defs>
<filter id="filter0_di_1495_78605" x="0.353516" y="0" width="662.842" height="375.949" filterUnits="userSpaceOnUse" color-interpolation-filters="sRGB">
<feFlood flood-opacity="0" result="BackgroundImageFix"/>
<feColorMatrix in="SourceAlpha" type="matrix" values="0 0 0 0 0 0 0 0 0 0 0 0 0 0 0 0 0 0 127 0" result="hardAlpha"/>
<feOffset dy="12"/>
<feGaussianBlur stdDeviation="20"/>
<feComposite in2="hardAlpha" operator="out"/>
<feColorMatrix type="matrix" values="0 0 0 0 0.909804 0 0 0 0 0.313726 0 0 0 0 0.470588 0 0 0 1 0"/>
<feBlend mode="normal" in2="BackgroundImageFix" result="effect1_dropShadow_1495_78605"/>
<feBlend mode="normal" in="SourceGraphic" in2="effect1_dropShadow_1495_78605" result="shape"/>
<feColorMatrix in="SourceAlpha" type="matrix" values="0 0 0 0 0 0 0 0 0 0 0 0 0 0 0 0 0 0 127 0" result="hardAlpha"/>
<feOffset dy="-4"/>
<feGaussianBlur stdDeviation="4"/>
<feComposite in2="hardAlpha" operator="arithmetic" k2="-1" k3="1"/>
<feColorMatrix type="matrix" values="0 0 0 0 0.909804 0 0 0 0 0.313726 0 0 0 0 0.470588 0 0 0 0.48 0"/>
<feBlend mode="normal" in2="shape" result="effect2_innerShadow_1495_78605"/>
</filter>
</defs>
</svg>

<svg width="664" height="376" viewBox="0 0 664 376" fill="none" xmlns="http://www.w3.org/2000/svg"><g filter="url(#filter0_di_1495_78605)"><path fill-rule="evenodd" clip-rule="evenodd" d="M540.33 289.375c80.857-32.165 114.573-132.374 45.857-202.666-69.408-71.001-337.921-75.692-422.93-24.388-74.424 44.916-96.827 129.354-68.36 190.512 2.652 5.695 3.779 12.2 1.287 17.966-10.616 24.562-34.752 39.55-55.704 52.562-.224.139-.132.482.131.494 28.775 1.274 54.564-10.705 72.395-22.656 8.641-5.791 19.843-6.562 29.605-2.972 26.35 9.692 58.824 9.12 91.795 8.54 22.661-.399 45.556-.802 66.861 2.119 78.92 10.824 152.42 14.956 239.063-19.511z" fill="#fff"/></g><defs><filter id="filter0_di_1495_78605" x=".354" y="0" width="662.842" height="375.949" filterUnits="userSpaceOnUse" color-interpolation-filters="sRGB"><feFlood flood-opacity="0" result="BackgroundImageFix"/><feColorMatrix in="SourceAlpha" values="0 0 0 0 0 0 0 0 0 0 0 0 0 0 0 0 0 0 127 0" result="hardAlpha"/><feOffset dy="12"/><feGaussianBlur stdDeviation="20"/><feComposite in2="hardAlpha" operator="out"/><feColorMatrix values="0 0 0 0 0.909804 0 0 0 0 0.313726 0 0 0 0 0.470588 0 0 0 1 0"/><feBlend in2="BackgroundImageFix" result="effect1_dropShadow_1495_78605"/><feBlend in="SourceGraphic" in2="effect1_dropShadow_1495_78605" result="shape"/><feColorMatrix in="SourceAlpha" values="0 0 0 0 0 0 0 0 0 0 0 0 0 0 0 0 0 0 127 0" result="hardAlpha"/><feOffset dy="-4"/><feGaussianBlur stdDeviation="4"/><feComposite in2="hardAlpha" operator="arithmetic" k2="-1" k3="1"/><feColorMatrix values="0 0 0 0 0.909804 0 0 0 0 0.313726 0 0 0 0 0.470588 0 0 0 0.48 0"/><feBlend in2="shape" result="effect2_innerShadow_1495_78605"/></filter></defs></svg>
